X: 1
T: The Cliffs Of Dooneen
R: waltz
S: www.irish-folk-songs.com
M: 3/4
L: 1/8
K: Dmix
"G"D EG |\
"D"A3 B d2 | "G"B2 A3 G | "C"E2 C2 C2 | "D"D4 Bc |\
"G"d3 e d2 | "G"B2 D2 EG | "D"A3 G A2 | "Em"B4 Bc |
"G"d3 e d2 | "G"B2 D2 G2 | "D"A2 B>A GA | "Em"B4 {c}BA |\
"G"G2 GA Bd | "G"B2 (3ABA G2 | "C"E D4 D | "D"D6- | D3 |]
